img/svg/software-licenses/people.svg

<svg width="24" height="24" viewBox="0 0 24 24" fill="none" xmlns="http://www.w3.org/2000/svg">
<path d="M9.50361 14.1256C9.63021 14.0062 9.76148 13.8899 9.89731 13.7769C9.45796 13.6669 9.01054 13.5908 8.559 13.5495C8.207 13.516 7.85359 13.4995 7.5 13.5C1.5 13.5 0 18 0 19.5C0 20.5005 0.4995 21 1.5 21H7.35547C7.29787 20.86 7.24883 20.7168 7.20851 20.5714M9.50361 14.1256C9.17918 14.0564 8.85072 14.0066 8.51993 13.9763L8.51843 13.9761C8.28234 13.9537 8.04558 13.9392 7.80857 13.9326M9.50361 14.1256C9.67191 14.1614 9.83913 14.2025 10.005 14.2486C9.68557 14.5293 9.39502 14.8294 9.135 15.144M9.50361 14.1256C9.25192 14.3628 9.01868 14.612 8.80476 14.8708L9.135 15.144M7.80857 13.9326V13.5825L7.57815 13.9287M7.80857 13.9326V15V15.0015V15.4252L7.61427 15.4274C6.85112 16.6493 6.43996 18.0599 6.42856 19.5034L6.4252 19.9286H6H1.5H1.07143V19.5C1.07143 19.0076 1.35407 17.7537 2.31457 16.6351C3.18771 15.6162 4.66243 14.6608 7.14601 14.5781L7.57815 13.9287M7.80857 13.9326C7.73179 13.9305 7.65498 13.9292 7.57815 13.9287M7.57815 13.9287C7.5523 13.9286 7.52645 13.9285 7.5006 13.9286L7.5 13.9286C4.62115 13.9286 2.86643 15.0019 1.8254 16.2164C0.766819 17.4514 0.428571 18.8525 0.428571 19.5C0.428571 19.9344 0.536722 20.181 0.677858 20.3221C0.818995 20.4633 1.06565 20.5714 1.5 20.5714H7.20851M7.20851 20.5714H7.65546C7.54631 20.226 7.49349 19.8642 7.5 19.5M7.20851 20.5714C7.11178 20.2225 7.06529 19.8605 7.07143 19.4962M7.07143 19.4962C7.07143 19.4975 7.07143 19.4987 7.07143 19.5H7.5M7.07143 19.4962C7.07145 19.4949 7.07147 19.4936 7.0715 19.4923L7.5 19.5M7.07143 19.4962C7.07237 17.8761 7.67696 16.2344 8.80466 14.871L9.135 15.144M7.5 19.5C7.5 17.985 8.0655 16.437 9.135 15.144M10.4745 19.9246L10.5036 19.9286H10.533H22.467H22.4919L22.5166 19.9257C22.5208 19.9252 22.525 19.9247 22.5292 19.9241C22.5394 19.9228 22.5495 19.9213 22.5595 19.9196L22.5759 19.9168L22.5919 19.9128L22.6039 19.9098L22.9311 19.828L22.9286 19.4907C22.9248 18.9966 22.6417 17.748 21.6853 16.635C20.7718 15.568 19.1965 14.5714 16.5 14.5714C13.8025 14.5714 12.2268 15.5662 11.3143 16.6354C10.3588 17.7477 10.0733 18.9947 10.0714 19.4924L10.0701 19.836L10.4053 19.912C10.4282 19.9172 10.4513 19.9214 10.4745 19.9246ZM2.64 16.914C3.3988 16.0285 4.67711 15.1637 6.85757 15.0213L1.55373 19.0714C1.66591 18.533 1.97214 17.6917 2.64 16.914ZM7.38 15H7.37998H7.38ZM7.10836 15.4372C6.39468 16.67 6.0113 18.0697 6 19.5H1.92857L7.10836 15.4372ZM23.5714 19.5C23.5714 19.8 23.4977 19.9965 23.409 20.1295C23.3186 20.2651 23.195 20.3608 23.0583 20.4292C22.92 20.4983 22.7765 20.5351 22.6639 20.5538C22.6087 20.563 22.5635 20.5675 22.5339 20.5696C22.5192 20.5706 22.5085 20.5711 22.5026 20.5713L22.4986 20.5714L22.4992 20.5714L22.4977 20.5714H10.5022L10.5008 20.5714L10.5014 20.5714L10.4974 20.5713C10.4915 20.5711 10.4808 20.5706 10.4661 20.5696C10.4365 20.5675 10.3913 20.563 10.3361 20.5538C10.2235 20.5351 10.08 20.4983 9.94166 20.4292C9.805 20.3608 9.68138 20.2651 9.59097 20.1295C9.50234 19.9965 9.42857 19.8 9.42857 19.5C9.42857 18.8525 9.76682 17.4514 10.8254 16.2164C11.8664 15.0019 13.6212 13.9286 16.5 13.9286C19.3788 13.9286 21.1336 15.0019 22.1746 16.2164C23.2332 17.4514 23.5714 18.8525 23.5714 19.5ZM16.5 10.9286C17.4093 10.9286 18.2814 10.5673 18.9244 9.92437C19.5673 9.28138 19.9286 8.40931 19.9286 7.5C19.9286 6.59069 19.5673 5.71862 18.9244 5.07563C18.2814 4.43265 17.4093 4.07143 16.5 4.07143C15.5907 4.07143 14.7186 4.43265 14.0756 5.07563C13.4327 5.71862 13.0714 6.59069 13.0714 7.5C13.0714 8.40931 13.4327 9.28138 14.0756 9.92437C14.7186 10.5673 15.5907 10.9286 16.5 10.9286ZM10.5023 20.5714C10.5027 20.5714 10.5028 20.5714 10.5026 20.5714L10.5023 20.5714ZM20.5714 7.5C20.5714 8.03467 20.4661 8.5641 20.2615 9.05807C20.0569 9.55204 19.757 10.0009 19.3789 10.3789C19.0009 10.757 18.552 11.0569 18.0581 11.2615C17.5641 11.4661 17.0347 11.5714 16.5 11.5714C15.9653 11.5714 15.4359 11.4661 14.9419 11.2615C14.448 11.0569 13.9991 10.757 13.6211 10.3789C13.243 10.0009 12.9431 9.55204 12.7385 9.05807C12.5339 8.5641 12.4286 8.03467 12.4286 7.5C12.4286 6.42019 12.8575 5.38461 13.6211 4.62107C14.3846 3.85752 15.4202 3.42857 16.5 3.42857C17.5798 3.42857 18.6154 3.85752 19.3789 4.62107C20.1425 5.38461 20.5714 6.42019 20.5714 7.5ZM2.67857 8.25C2.67857 7.17019 3.10752 6.13461 3.87107 5.37107C4.63461 4.60752 5.67019 4.17857 6.75 4.17857C7.82981 4.17857 8.86539 4.60752 9.62893 5.37107C10.3925 6.13461 10.8214 7.17019 10.8214 8.25C10.8214 9.32981 10.3925 10.3654 9.62893 11.1289C8.86539 11.8925 7.82981 12.3214 6.75 12.3214C5.67019 12.3214 4.63461 11.8925 3.87107 11.1289C3.10752 10.3654 2.67857 9.32981 2.67857 8.25ZM6.75 4.82143C5.84069 4.82143 4.96862 5.18265 4.32563 5.82563C3.68265 6.46862 3.32143 7.34069 3.32143 8.25C3.32143 9.15931 3.68265 10.0314 4.32563 10.6744C4.96862 11.3173 5.84069 11.6786 6.75 11.6786C7.65931 11.6786 8.53138 11.3173 9.17437 10.6744C9.81735 10.0314 10.1786 9.15931 10.1786 8.25C10.1786 7.34069 9.81735 6.46862 9.17437 5.82563C8.53138 5.18265 7.65931 4.82143 6.75 4.82143Z" fill="#030303" stroke="#030303" stroke-width="0.857143"/>
</svg>

<svg width="24" height="24" fill="none" xmlns="http://www.w3.org/2000/svg"><path d="M9.504 14.126c.126-.12.257-.236.393-.35a8.817 8.817 0 00-1.338-.226c-.352-.034-.705-.05-1.059-.05-6 0-7.5 4.5-7.5 6 0 1 .5 1.5 1.5 1.5h5.855a3.785 3.785 0 01-.146-.429m2.295-6.445a8.38 8.38 0 00-.984-.15h-.002a10.656 10.656 0 00-.71-.043m1.696.193c.168.035.335.077.501.123-.32.28-.61.58-.87.895m.369-1.018a8.227 8.227 0 00-.7.745l.331.273m-1.326-1.211v-.35l-.23.346m.23.004v1.492l-.195.002a7.811 7.811 0 00-1.185 4.076l-.004.426H1.071V19.5c0-.492.283-1.746 1.244-2.865.873-1.019 2.347-1.974 4.831-2.057l.432-.65m.23.005a11.06 11.06 0 00-.23-.004m0 0H7.5c-2.879 0-4.634 1.073-5.675 2.287C.767 17.451.43 18.852.43 19.5c0 .434.108.681.249.822.141.141.388.25.822.25H7.21m0 0h.446A3.357 3.357 0 017.5 19.5m-.291 1.071a3.785 3.785 0 01-.138-1.075m0 0v.004H7.5m-.429-.004v-.004l.429.008m-.429-.004c.001-1.62.606-3.262 1.734-4.625l.33.273M7.5 19.5c0-1.515.566-3.063 1.635-4.356m1.34 4.78l.029.005h11.988l.025-.003a.542.542 0 00.043-.006l.016-.003.016-.004.012-.003.327-.082-.002-.337c-.004-.494-.287-1.743-1.244-2.856-.913-1.067-2.488-2.064-5.185-2.064-2.697 0-4.273.995-5.186 2.064-.955 1.113-1.24 2.36-1.243 2.857v.344l.334.076c.023.005.046.01.07.013zm-7.835-3.01c.759-.886 2.037-1.75 4.218-1.893l-5.304 4.05a4.976 4.976 0 011.086-2.157zM7.38 15h0zm-.272.437A8.24 8.24 0 006 19.5H1.929l5.18-4.063zM23.571 19.5c0 .3-.073.497-.162.63a.889.889 0 01-.35.3 1.415 1.415 0 01-.556.141h-.004 0-11.998 0-.004a.973.973 0 01-.16-.017 1.415 1.415 0 01-.395-.125.89.89 0 01-.351-.3c-.089-.133-.162-.329-.162-.629 0-.648.338-2.049 1.396-3.284 1.041-1.214 2.796-2.287 5.675-2.287s4.634 1.073 5.675 2.287c1.058 1.235 1.396 2.636 1.396 3.284zM16.5 10.929a3.429 3.429 0 100-6.858 3.429 3.429 0 000 6.858zm-5.998 9.642s0 0 0 0h0zM20.572 7.5a4.072 4.072 0 11-8.144 0 4.072 4.072 0 018.143 0zm-17.893.75a4.071 4.071 0 118.142 0 4.071 4.071 0 01-8.142 0zM6.75 4.821a3.429 3.429 0 100 6.858 3.429 3.429 0 000-6.858z" fill="#030303" stroke="#030303" stroke-width=".857"/></svg>
